X:1
T:Title
%%score { ( 1 3 ) | ( 2 4 ) }
L:1/8
M:9/8
K:E
V:1 treble nm="Grand Piano"
V:3 treble 
V:2 bass 
V:4 bass 
V:1
 z3 z3[Q:1/4=100] [CE][^B,D][CE] | [Ec]3 [CA]3 BAF | [CA]3 [CE]3 [CE][^B,D][CE] | c3 e3 cB[DA] | %4
 [=DB]6 [CE][^B,^D][CE] | [Ec]3 [CA]3 BAF | [CA]3 [CE]3 [CA][Ec][=Ge] | [=DF]3 [F=d]3 GAB | %8
[M:3/4] [A,CA]6 |[M:3/8] ccc |[M:9/8] c3 C2 C AGF |[M:3/4] G6 |[M:3/8] [^Ec][Ec][=Ec] | %13
[M:9/8] [Fe]3 [F=d]2 [=DF] GFE |[M:3/4] A6[K:bass] | z6 |] %16
V:2
 z3 z3 [A,,A,][A,,A,][A,,A,] | [A,,A,]3 [A,,E,]3 [=D,F,=D][D,F,D][D,F,D] | %2
 [A,,E,]3 [A,,A,]3 [A,,A,][A,,A,][A,,A,] | [A,E]3 [G,B,E]3 [F,A,E][F,A,D][B,,F,] | %4
 [E,G,]6 [A,,A,][A,,A,][A,,A,] | [A,,A,]3 [A,,E,]3 [=D,F,=D][D,F,D][D,F,D] | %6
 [A,,E,]3 [A,,A,]3 [A,,A,][A,,A,][C,A,] | [=D,A,]3 [B,,A,]3 [E,B,=D][E,A,D][E,G,D] |[M:3/4] A,,6 | %9
[M:3/8] CCC |[M:9/8] C3 C,2 C, [=D,F,B,][D,F,^B,][D,F,B,] |[M:3/4] [C,C]6 | %12
[M:3/8] [C,G,][C,G,][F,^A,] |[M:9/8] [B,,B,]3 [B,,B,]2 [B,,B,] [E,B,=D][E,A,D][E,G,D] | %14
[M:3/4] F,4 z2 | z6 |] %16
V:3
 x9 | x9 | x9 | x9 | x9 | x9 | x9 | x9 |[M:3/4] x6 |[M:3/8] x3 |[M:9/8] x9 |[M:3/4] z2 z ^E,3 | %12
[M:3/8] x3 |[M:9/8] x9 |[M:3/4] =D3[K:bass] [E,C]3 | x6 |] %16
V:4
 x9 | x9 | x9 | x9 | x9 | x9 | x9 | x9 |[M:3/4] x6 |[M:3/8] x3 |[M:9/8] x9 |[M:3/4] F,4 z2 | %12
[M:3/8] x3 |[M:9/8] x9 |[M:3/4] A,,6 | x6 |] %16

